svg/network_switch.svg

<svg xmlns="http://www.w3.org/2000/svg" width="24" height="24" viewBox="0 0 24 24"><title>px_network_switch_24px</title><path d="M13 18h1a1 1 0 0 1 1 1h7v2h-7a1 1 0 0 1-1 1h-4a1 1 0 0 1-1-1H2v-2h7a1 1 0 0 1 1-1h1v-2H8a1 1 0 0 1-1-1V3a1 1 0 0 1 1-1h8a1 1 0 0 1 1 1v12a1 1 0 0 1-1 1h-3v2m0-12h1V4h-1v2M9 4v2h2V4H9m0 4v2h2V8H9m0 4v2h2v-2z"/><path fill="none" d="M0 0h24v24H0z"/></svg>

<svg xmlns="http://www.w3.org/2000/svg" width="24" height="24" viewBox="0 0 24 24">
  <title>px_network_switch_24px</title>
  <path d="M13,18h1a1,1,0,0,1,1,1h7v2H15a1,1,0,0,1-1,1H10a1,1,0,0,1-1-1H2V19H9a1,1,0,0,1,1-1h1V16H8a1,1,0,0,1-1-1V3A1,1,0,0,1,8,2h8a1,1,0,0,1,1,1V15a1,1,0,0,1-1,1H13v2M13,6h1V4H13V6M9,4V6h2V4H9M9,8v2h2V8H9m0,4v2h2V12Z"/>
  <rect width="24" height="24" fill="none"/>
</svg>
